dist/assets/images/product-icons/wheel.svg

<svg width="145" height="146" viewBox="0 0 145 146" fill="none" xmlns="http://www.w3.org/2000/svg">
<path opacity="0.6" fill-rule="evenodd" clip-rule="evenodd" d="M66.962 0.0667635C48.3581 1.98954 33.5755 8.85396 21.1631 21.3343C9.65827 32.9018 2.65312 47.2114 0.366975 63.8158C-0.122325 67.3697 -0.122325 78.5252 0.366975 82.0791C3.36067 103.822 14.8703 122.247 32.9241 134.199C46.1809 142.975 63.0021 147.188 78.8822 145.709C96.3219 144.086 111.853 136.72 124.074 124.276C135.363 112.782 141.97 99.4024 144.487 82.9352C145.167 78.4924 145.172 67.5938 144.497 63.1581C143.311 55.3625 141.167 48.1297 138.204 41.9259C136.714 38.8054 136.278 38.1245 135.67 37.971C134.456 37.6648 133.541 38.0635 133.041 39.117C132.583 40.0839 132.585 40.0921 134.176 43.4611C140.374 56.5796 142.264 71.2162 139.621 85.6096C135.081 110.322 117.087 130.813 93.2632 138.398C76.3007 143.798 57.829 142.38 42.128 134.473C21.3702 124.018 7.81545 104.769 4.63075 81.223C4.15848 77.7307 4.15848 68.1642 4.63075 64.6719C7.47033 43.6786 18.4049 26.2842 35.884 14.9559C44.1437 9.60275 53.7492 6.1373 64.2657 4.71648C67.7731 4.24249 77.2869 4.23935 80.7271 4.71105C93.7014 6.49001 105.137 11.2915 114.868 19.0469L116.796 20.5833L115.436 20.6577C113.236 20.7784 112.791 20.9642 112.387 21.9287C111.91 23.0696 112.276 24.2348 113.252 24.6816C113.686 24.8805 115.699 25.0064 118.45 25.0064C122.562 25.0064 123.002 24.9567 123.687 24.4148L124.435 23.8236V18.8374C124.435 13.924 124.425 13.841 123.738 13.151C122.85 12.2581 121.762 12.2581 120.874 13.151C120.276 13.7519 120.178 14.1163 120.178 15.7192C120.178 16.7465 120.117 17.5869 120.043 17.5869C119.969 17.5869 118.888 16.7588 117.641 15.7469C107.656 7.64174 94.9522 2.23895 81.7204 0.470838C79.3324 0.151802 68.9033 -0.133847 66.962 0.0667635ZM64.5495 13.1941C34.8887 17.1723 12.6111 42.8017 12.6111 72.9474C12.6111 106.231 39.3878 133.159 72.4847 133.159C102.734 133.159 128.133 110.617 131.967 80.3669C132.555 75.7278 132.417 67.1657 131.688 63.1024C130.132 54.4291 127.1 46.684 122.603 39.8921C120.145 36.1789 119.622 35.5957 118.564 35.3908C117.836 35.2495 117.52 35.3574 116.932 35.9481C115.802 37.0844 115.984 37.9596 117.91 40.6637C133.583 62.6618 130.96 93.1643 111.734 112.495C91.5668 132.772 59.4283 134.384 37.3273 116.226C21.1191 102.909 13.6612 81.4033 18.1787 61.0056C24.0659 34.424 47.8228 15.9952 74.7669 17.1092C87.7274 17.6452 99.4263 22.3348 109.109 30.8763C110.279 31.9093 111.519 32.891 111.863 33.0579C113.233 33.7234 115.128 31.9655 114.656 30.4677C114.431 29.7554 111.776 27.265 108.873 25.0432C100.404 18.5615 90.695 14.5595 80.074 13.1729C75.9728 12.6376 68.6243 12.6476 64.5495 13.1941ZM54.474 30.5276C50.9218 31.7144 44.8203 35.7657 40.9221 39.5263C36.5879 43.7068 33.3396 48.1616 30.9947 53.1401C30.1376 54.9596 30.0658 55.3334 30.0658 57.9719C30.0658 60.6197 30.1339 60.9705 30.9857 62.7103C32.0937 64.973 34.1235 66.9771 36.3898 68.0449L38.0127 68.8097L46.811 68.8956L55.6093 68.9818V72.962V76.9425H49.4363C43.6416 76.9425 43.2284 76.9776 42.6956 77.5133C41.8504 78.3631 41.9387 79.8904 42.8759 80.6314C43.5857 81.193 43.9779 81.2233 50.6099 81.2307L57.596 81.2384L58.3056 82.4013C59.1201 83.7359 62.554 87.0938 63.5896 87.5683L64.287 87.8877L64.2055 97.3483L64.1238 106.809L63.265 108.205C61.7326 110.696 58.6277 111.968 55.8931 111.224C55.2687 111.055 53.6084 110.257 52.2035 109.452C45.1257 105.394 39.5637 99.6786 35.7033 92.4949C34.4224 90.1112 34.3236 89.783 34.3304 87.929C34.3395 85.5685 34.7823 84.5817 36.6319 82.7996C37.7635 81.7095 37.8986 81.4479 37.8188 80.4973C37.7047 79.1378 36.6018 78.1981 35.4586 78.4864C34.211 78.8014 31.9895 81.1348 30.9857 83.1846C30.1339 84.9244 30.0658 85.2752 30.0658 87.923C30.0658 90.5615 30.1376 90.9353 30.9947 92.7548C33.3413 97.737 36.5879 102.188 40.9317 106.378C44.0688 109.404 48.9373 112.833 52.4938 114.521C54.6367 115.538 54.9103 115.596 57.602 115.602C60.2426 115.609 60.5798 115.543 62.3147 114.684C64.5651 113.57 66.5584 111.529 67.6204 109.251L68.381 107.619L68.4665 98.7729L68.5522 89.9266H72.4964H76.4406L76.5263 98.7729L76.6117 107.619L77.3723 109.251C78.4349 111.53 80.4276 113.57 82.6789 114.684C84.4181 115.545 84.747 115.608 87.3916 115.597C89.9763 115.586 90.4109 115.503 92.1685 114.68C101.06 110.516 109.618 101.982 113.845 93.0656C114.875 90.8914 114.927 90.6466 114.927 87.923C114.927 85.2752 114.859 84.9244 114.007 83.1846C112.899 80.9219 110.869 78.9178 108.603 77.85L106.98 77.0852L98.1818 76.9993L89.3834 76.9132V72.9474V68.9818L98.1818 68.8956L106.98 68.8097L108.603 68.0449C110.869 66.9771 112.899 64.973 114.007 62.7103C114.859 60.9705 114.927 60.6197 114.927 57.9719C114.927 55.3351 114.855 54.959 114.001 53.1455C109.634 43.8758 101.41 35.6071 92.191 31.217C90.3882 30.3587 90.0127 30.2856 87.3967 30.2856C84.9114 30.2856 84.3568 30.3806 82.9357 31.0504C80.6706 32.1179 78.6396 34.1223 77.5316 36.3838L76.6117 38.2615L76.5263 47.1149L76.4406 55.9683H72.4964H68.5522L68.4665 47.1221L68.381 38.2758L67.6204 36.6441C66.5643 34.3783 64.564 32.324 62.3448 31.2253C60.7827 30.4523 60.1379 30.3027 58.0578 30.232C56.5581 30.1806 55.1694 30.2953 54.474 30.5276ZM61.0918 35.4764C61.8788 35.9658 62.7504 36.8533 63.265 37.6897L64.1238 39.0859L64.1953 48.5258L64.2668 57.9659L63.1023 58.6793C61.7721 59.494 58.4301 62.9435 57.9548 63.9922L57.6372 64.6933L48.2278 64.6114L38.8184 64.5292L37.4297 63.6657C36.5695 63.1307 35.714 62.2703 35.1819 61.4051C34.4377 60.1946 34.3231 59.7385 34.3231 57.9881C34.3231 56.1141 34.4227 55.7828 35.7033 53.4001C39.5101 46.3159 45.0661 40.5678 51.9702 36.5702C55.1745 34.7147 56.1539 34.3909 58.1191 34.5367C59.2972 34.624 60.158 34.8959 61.0918 35.4764ZM92.0062 35.9977C97.0173 38.7061 102.211 43.1096 105.47 47.414C108.547 51.4761 110.803 55.9481 110.792 57.9659C110.78 60.4742 109.319 62.8045 107.043 63.9445L105.591 64.6719H96.4686H87.3459L87.0332 63.9813C86.5651 62.9489 83.2198 59.4943 81.8989 58.6793L80.7424 57.9659L80.7347 48.8188L80.7271 39.6721L81.4658 38.181C82.726 35.6387 85.0428 34.3238 87.8909 34.5338C89.1499 34.6268 90.0853 34.9596 92.0062 35.9977ZM75.4217 60.5319C80.5559 61.8765 84.1714 65.8336 85.0666 71.0883C86.455 79.2383 78.7531 86.9822 70.6473 85.5862C65.0595 84.624 60.8832 80.4248 59.9261 74.8066C58.4526 66.1578 66.9639 58.3169 75.4217 60.5319ZM68.6649 63.6592C66.377 64.618 64.0159 67.0524 63.1753 69.3199C62.3565 71.5278 62.3539 74.3546 63.169 76.575C64.0182 78.8893 66.6109 81.4798 68.9487 82.3505C71.3583 83.2477 74.5529 83.1084 76.7789 82.0092C78.7772 81.0227 80.5318 79.254 81.5203 77.2299C82.1913 75.8567 82.288 75.3163 82.288 72.9474C82.288 70.6103 82.1853 70.0202 81.543 68.667C80.5877 66.6543 78.7327 64.7892 76.7536 63.8512C74.4448 62.7568 71.0123 62.6755 68.6649 63.6592ZM74.7011 67.6819C76.1037 68.2709 77.0022 69.1404 77.6363 70.5219C78.6203 72.6655 78.0836 75.6167 76.4323 77.1429C74.3026 79.1116 70.6902 79.1116 68.5604 77.1429C66.4051 75.1507 66.2907 71.2133 68.3237 68.99C69.7876 67.3889 72.6204 66.8076 74.7011 67.6819ZM107.563 82.2292C108.423 82.764 109.279 83.6246 109.81 84.4887C110.539 85.6738 110.668 86.1695 110.669 87.7758C110.67 89.3841 110.512 89.9856 109.62 91.7946C105.835 99.4629 99.7234 105.687 91.654 110.09C89.5833 111.22 89.2066 111.329 87.3746 111.329C85.6337 111.329 85.1801 111.214 83.9762 110.465C83.1156 109.93 82.2599 109.07 81.7278 108.205L80.869 106.809L80.7872 97.3483L80.7058 87.8877L81.4031 87.5683C82.4461 87.0904 85.8769 83.7302 86.6872 82.3927L87.3967 81.2219L96.7857 81.2938L106.174 81.3657L107.563 82.2292Z" fill="#231F20"/>
</svg>

<svg width="145" height="146" fill="none" xmlns="http://www.w3.org/2000/svg"><path opacity=".6" fill-rule="evenodd" clip-rule="evenodd" d="M66.962.067C48.358 1.99 33.575 8.854 21.163 21.334 9.658 32.902 2.653 47.211.367 63.816c-.49 3.554-.49 14.71 0 18.263 2.994 21.743 14.503 40.168 32.557 52.12 13.257 8.776 30.078 12.989 45.958 11.51 17.44-1.623 32.971-8.989 45.192-21.433 11.289-11.494 17.896-24.874 20.413-41.34.68-4.444.685-15.342.01-19.778-1.186-7.796-3.33-15.028-6.293-21.232-1.49-3.12-1.926-3.802-2.534-3.955-1.214-.306-2.129.093-2.629 1.146-.458.967-.456.975 1.135 4.344 6.198 13.119 8.088 27.755 5.445 42.149-4.54 24.712-22.534 45.203-46.358 52.788-16.962 5.4-35.434 3.982-51.135-3.925-20.758-10.455-34.313-29.704-37.497-53.25-.473-3.492-.473-13.059 0-16.551 2.84-20.993 13.774-38.388 31.253-49.716 8.26-5.353 17.865-8.819 28.382-10.24 3.507-.474 13.02-.477 16.461-.005 12.974 1.779 24.41 6.58 34.141 14.336l1.928 1.536-1.36.075c-2.2.12-2.645.306-3.049 1.27-.477 1.142-.111 2.307.865 2.754.434.199 2.447.324 5.198.324 4.112 0 4.552-.05 5.237-.591l.748-.591v-4.987c0-4.913-.01-4.996-.697-5.686-.888-.893-1.976-.893-2.864 0-.598.6-.696.965-.696 2.568 0 1.028-.061 1.868-.135 1.868-.074 0-1.155-.828-2.402-1.84C107.656 7.642 94.952 2.239 81.721.47c-2.39-.32-12.819-.604-14.76-.403zm-2.413 13.127c-29.66 3.978-51.938 29.608-51.938 59.753 0 33.284 26.777 60.212 59.874 60.212 30.249 0 55.648-22.542 59.482-52.792.588-4.64.45-13.201-.279-17.265-1.556-8.673-4.588-16.418-9.085-23.21-2.458-3.713-2.981-4.296-4.039-4.501-.728-.142-1.044-.034-1.632.557-1.13 1.136-.948 2.012.978 4.716 15.673 21.998 13.05 52.5-6.176 71.831-20.167 20.277-52.306 21.889-74.407 3.731-16.208-13.317-23.666-34.823-19.148-55.22 5.887-26.582 29.644-45.01 56.588-43.897 12.96.536 24.66 5.226 34.342 13.767 1.17 1.033 2.41 2.015 2.754 2.182 1.37.665 3.265-1.093 2.793-2.59-.225-.713-2.88-3.203-5.783-5.425-8.469-6.482-18.178-10.483-28.799-11.87-4.101-.535-11.45-.525-15.525.021zM54.474 30.528c-3.552 1.186-9.654 5.238-13.552 8.998-4.334 4.18-7.582 8.636-9.927 13.614-.857 1.82-.93 2.193-.93 4.832 0 2.648.069 2.998.92 4.738 1.109 2.263 3.139 4.267 5.405 5.335l1.623.765 8.798.086 8.798.086v7.96h-6.173c-5.794 0-6.208.036-6.74.571-.846.85-.757 2.377.18 3.118.71.562 1.102.592 7.734.6l6.986.007.71 1.163c.814 1.335 4.248 4.693 5.284 5.167l.697.32-.082 9.46-.081 9.461-.859 1.396c-1.532 2.491-4.637 3.763-7.372 3.019-.624-.169-2.285-.967-3.69-1.772-7.077-4.058-12.64-9.773-16.5-16.957-1.28-2.384-1.38-2.712-1.373-4.566.01-2.36.452-3.347 2.302-5.13 1.132-1.09 1.267-1.351 1.187-2.302-.114-1.36-1.217-2.299-2.36-2.01-1.248.314-3.47 2.648-4.473 4.698-.852 1.74-.92 2.09-.92 4.738 0 2.638.072 3.012.929 4.832 2.346 4.982 5.593 9.433 9.937 13.623 3.137 3.026 8.005 6.455 11.562 8.143 2.143 1.017 2.416 1.075 5.108 1.081 2.64.007 2.978-.059 4.713-.918 2.25-1.114 4.243-3.155 5.305-5.433l.761-1.632.085-8.846.086-8.846h7.889l.085 8.846.086 8.846.76 1.632c1.063 2.279 3.056 4.319 5.307 5.433 1.74.861 2.068.924 4.713.913 2.584-.011 3.019-.094 4.776-.917 8.892-4.164 17.45-12.698 21.677-21.614 1.03-2.175 1.082-2.42 1.082-5.143 0-2.648-.068-2.999-.92-4.738-1.108-2.263-3.138-4.267-5.404-5.335l-1.623-.765L98.182 77l-8.799-.086v-7.931l8.799-.086 8.798-.086 1.623-.765c2.266-1.068 4.296-3.072 5.404-5.335.852-1.74.92-2.09.92-4.738 0-2.637-.072-3.013-.926-4.827-4.367-9.27-12.591-17.538-21.81-21.928-1.803-.858-2.178-.931-4.794-.931-2.486 0-3.04.095-4.461.764-2.265 1.068-4.296 3.072-5.404 5.334l-.92 1.877-.086 8.854-.085 8.853h-7.889l-.086-8.846-.085-8.846-.76-1.632c-1.057-2.266-3.057-4.32-5.276-5.419-1.562-.773-2.207-.922-4.287-.993-1.5-.051-2.889.063-3.584.296zm6.618 4.948c.787.49 1.658 1.377 2.173 2.214l.859 1.396.071 9.44.072 9.44-1.165.713c-1.33.815-4.672 4.264-5.147 5.313l-.318.701-9.41-.082-9.409-.082-1.388-.863a7.365 7.365 0 01-2.248-2.26c-.744-1.211-.859-1.667-.859-3.418 0-1.874.1-2.205 1.38-4.588 3.807-7.084 9.363-12.832 16.267-16.83 3.205-1.855 4.184-2.18 6.15-2.033 1.177.087 2.038.359 2.972.94zm30.914.522c5.011 2.708 10.205 7.112 13.464 11.416 3.077 4.062 5.333 8.534 5.322 10.552-.012 2.508-1.473 4.838-3.749 5.978l-1.452.728H87.346l-.313-.69c-.468-1.033-3.813-4.488-5.134-5.303l-1.157-.713-.007-9.147-.008-9.147.739-1.491c1.26-2.542 3.577-3.857 6.425-3.647 1.259.093 2.194.426 4.115 1.464zM75.422 60.532c5.134 1.345 8.75 5.302 9.645 10.556 1.388 8.15-6.314 15.894-14.42 14.498-5.588-.962-9.764-5.161-10.72-10.78-1.474-8.648 7.037-16.49 15.495-14.274zm-6.757 3.127c-2.288.959-4.65 3.393-5.49 5.66-.819 2.209-.821 5.036-.006 7.256.85 2.314 3.442 4.905 5.78 5.775 2.41.898 5.604.758 7.83-.34 1.998-.987 3.753-2.756 4.741-4.78.671-1.373.768-1.914.768-4.283 0-2.337-.103-2.927-.745-4.28-.955-2.013-2.81-3.878-4.79-4.816-2.308-1.094-5.74-1.175-8.088-.192zm6.036 4.023c1.403.589 2.301 1.458 2.935 2.84.984 2.143.448 5.095-1.204 6.62-2.13 1.97-5.742 1.97-7.872 0-2.155-1.991-2.27-5.929-.236-8.152 1.464-1.601 4.296-2.182 6.377-1.308zm32.862 14.547a7.359 7.359 0 012.247 2.26c.729 1.185.858 1.68.859 3.287.001 1.608-.157 2.21-1.049 4.019-3.785 7.668-9.897 13.892-17.966 18.295-2.07 1.13-2.447 1.239-4.28 1.239-1.74 0-2.194-.115-3.398-.864a7.363 7.363 0 01-2.248-2.26l-.859-1.396-.082-9.46-.081-9.461.697-.32c1.043-.478 4.474-3.838 5.284-5.175l.71-1.171 9.389.072 9.388.072 1.389.863z" fill="#231F20"/></svg>
